X:75
T:Kesh Jig
R:jig
Z:Jaya R. Carl, August 27, 2006
M:6/8
L:1/8
K:Gmaj
|:"G"G3 GAB| "D"ABA ABd|"C"edd "G"gdd|"C"edB "D"dBA|
"G"G3 GAB|"D"ABA ABd|"C"edd "G"gdB|[1"D"AGF "G"G2D:|[2 "D"AGF "G"G2A||
|:"G"B3 dBd|"C"ege "G"dBG|BAB dBG|"Am"ABA AGA|
"G"B3 dBd|"C"ege "G"dBd|"C"g3 "D"aga| "G"bgg g2A:|
